assets/svg/insight_tracking_blue.svg

<svg fill="none" height="36" viewBox="0 0 36 36" width="36" xmlns="http://www.w3.org/2000/svg">
    <path
        d="M22.4118 0.888916C20.0115 0.888916 17.6736 1.56265 15.6509 2.8372C15.3386 3.03404 15.2449 3.4467 15.4418 3.75904C15.6385 4.07145 16.0513 4.16509 16.3636 3.96818C18.1727 2.82825 20.2642 2.22569 22.4118 2.22569C28.6772 2.22569 33.7745 7.32296 33.7745 13.5883C33.7745 19.8536 28.6772 24.9509 22.4118 24.9509C16.1465 24.9509 11.0492 19.8536 11.0492 13.5883C11.0492 11.4403 11.6518 9.34884 12.7918 7.54012C12.9886 7.22778 12.895 6.81505 12.5827 6.61828C12.2705 6.42137 11.8577 6.51501 11.6609 6.82735C10.3862 8.84989 9.71247 11.1877 9.71247 13.5883C9.71247 16.3675 10.6105 18.9404 12.1306 21.0337L10.9876 22.1768C10.2424 21.8218 9.32186 21.952 8.70581 22.5681L1.47525 29.7986C0.693504 30.5804 0.693438 31.8525 1.47525 32.6344L3.36572 34.5248C3.74343 34.9025 4.24699 35.1105 4.78357 35.1105C5.32022 35.1105 5.82379 34.9025 6.20143 34.5248L13.4319 27.2944C13.8095 26.9167 14.0176 26.4131 14.0176 25.8765C14.0176 25.572 13.9505 25.2783 13.8236 25.0122L14.9663 23.8694C17.0596 25.3896 19.6326 26.2876 22.4117 26.2876C29.4142 26.2876 35.1111 20.5907 35.1111 13.5882C35.1111 6.58572 29.4143 0.888916 22.4118 0.888916ZM12.4867 26.3492L5.25626 33.5795C5.13107 33.7047 4.96324 33.7737 4.78364 33.7737C4.60404 33.7737 4.43621 33.7047 4.31102 33.5795L2.42055 31.6891C2.15995 31.4285 2.15995 31.0044 2.42055 30.7438L9.65098 23.5133C9.78125 23.3831 9.95236 23.3179 10.1235 23.3179C10.2947 23.3179 10.4659 23.3831 10.5961 23.5133L12.4867 25.4039C12.6119 25.5291 12.6808 25.6969 12.6808 25.8764C12.6808 26.0559 12.6119 26.2239 12.4867 26.3492ZM12.9593 23.986L12.0141 23.0407L12.9763 22.0785C13.2747 22.4098 13.5902 22.7253 13.9215 23.0237L12.9593 23.986Z"
        fill="#1E1E99" />
    <path
        d="M30.3259 18.6279C30.6503 18.8037 31.0562 18.6832 31.232 18.3587C32.0207 16.9033 32.4375 15.2538 32.4375 13.5886C32.4375 8.06037 27.9399 3.56278 22.4117 3.56278C16.8834 3.56278 12.3859 8.06037 12.3859 13.5886C12.3859 19.1168 16.8834 23.6144 22.4117 23.6144C24.077 23.6144 25.7265 23.1976 27.1818 22.4089C27.5063 22.2329 27.6269 21.8273 27.4509 21.5027C27.2751 21.1782 26.8692 21.0578 26.5448 21.2336C25.2844 21.9167 23.8552 22.2777 22.4116 22.2777C17.6205 22.2777 13.7226 18.3798 13.7226 13.5886C13.7226 8.7974 17.6205 4.89956 22.4116 4.89956C27.2028 4.89956 31.1007 8.7974 31.1007 13.5886C31.1007 15.0321 30.7397 16.4613 30.0567 17.7218C29.8808 18.0464 30.0014 18.452 30.3259 18.6279Z"
        fill="#1E1E99" />
    <path
        d="M13.9047 5.74966C14.0651 5.74966 14.2262 5.69225 14.3543 5.57574C14.6274 5.32743 14.6476 4.90473 14.3993 4.63156C14.1509 4.35838 13.7282 4.33833 13.4551 4.58657L13.4548 4.58691C13.1817 4.83522 13.1617 5.25779 13.41 5.53096C13.5419 5.67607 13.7229 5.74966 13.9047 5.74966Z"
        fill="#1E1E99" />
    <path
        d="M29.0288 20.8736C29.1798 20.8736 29.3316 20.8228 29.4565 20.7187C29.7402 20.4823 29.7785 20.0608 29.5422 19.7773C29.3057 19.4936 28.8843 19.4555 28.6008 19.6917L28.6004 19.692C28.3168 19.9284 28.2787 20.3497 28.515 20.6333C28.6472 20.7918 28.8373 20.8736 29.0288 20.8736Z"
        fill="#1E1E99" />
    <path
        d="M29.4121 13.975C29.5762 13.7435 29.5762 13.4337 29.4121 13.2022C27.9593 11.1516 25.277 9.8778 22.4118 9.8778C19.5466 9.8778 16.8642 11.1517 15.4113 13.2022C15.2473 13.4337 15.2473 13.7435 15.4113 13.975C16.8642 16.0256 19.5466 17.2993 22.4118 17.2993C25.277 17.2993 27.9593 16.0256 29.4121 13.975ZM24.7858 13.5886C24.7858 14.8976 23.7207 15.9626 22.4117 15.9626C21.1027 15.9626 20.0377 14.8976 20.0377 13.5886C20.0377 12.2796 21.1027 11.2146 22.4117 11.2146C23.7207 11.2146 24.7858 12.2796 24.7858 13.5886ZM16.8032 13.5886C17.4043 12.8848 18.1972 12.3125 19.1061 11.906C18.8477 12.4115 18.701 12.9831 18.701 13.5886C18.701 14.1941 18.8478 14.7657 19.1061 15.2712C18.1972 14.8648 17.4043 14.2924 16.8032 13.5886ZM25.7174 15.2712C25.9758 14.7657 26.1225 14.1941 26.1225 13.5885C26.1225 12.983 25.9758 12.4114 25.7175 11.906C26.6263 12.3124 27.4192 12.8847 28.0203 13.5886C27.4191 14.2924 26.6263 14.8647 25.7174 15.2712Z"
        fill="#1E1E99" />
    <path
        d="M22.4114 14.257H22.412C22.7811 14.257 23.0801 13.9577 23.0801 13.5886C23.0801 13.2195 22.7806 12.9202 22.4114 12.9202C22.0423 12.9202 21.743 13.2195 21.743 13.5886C21.743 13.9577 22.0424 14.257 22.4114 14.257Z"
        fill="#1E1E99" />
</svg>

<?xml version="1.0" encoding="utf-8"?><!-- Generator: Adobe Illustrator 23.0.3, SVG Export Plug-In . SVG Version: 6.00 Build 0)  -->
<svg xmlns:xlink="http://www.w3.org/1999/xlink" style="enable-background:new 0 0 36 36;"
    version="1.1" viewBox="0 0 36 36" x="0px" xmlns="http://www.w3.org/2000/svg" y="0px"
    xml:space="preserve">
<style type="text/css">
	.st0{display:none;}
	.st1{display:inline;fill:#1E1E99;}
	.st2{fill:none;stroke:#1E1E99;stroke-width:2;stroke-miterlimit:10;}
	.st3{fill:#FFFFFF;stroke:#FFFFFF;stroke-width:2;stroke-miterlimit:10;}
</style>
    <g class="st0" id="Layer_1">
	<path class="st1" d="M22.4,0.9c-2.4,0-4.7,0.7-6.8,1.9c-0.3,0.2-0.4,0.6-0.2,0.9c0.2,0.3,0.6,0.4,0.9,0.2c1.8-1.1,3.9-1.7,6-1.7
		c6.3,0,11.4,5.1,11.4,11.4c0,6.3-5.1,11.4-11.4,11.4C16.1,25,11,19.9,11,13.6c0-2.1,0.6-4.2,1.7-6c0.2-0.3,0.1-0.7-0.2-0.9
		c-0.3-0.2-0.7-0.1-0.9,0.2c-1.3,2-1.9,4.4-1.9,6.8c0,2.8,0.9,5.4,2.4,7.4L11,22.2c-0.7-0.4-1.7-0.2-2.3,0.4l-7.2,7.2
		c-0.8,0.8-0.8,2.1,0,2.8l1.9,1.9c0.4,0.4,0.9,0.6,1.4,0.6c0.5,0,1-0.2,1.4-0.6l7.2-7.2c0.4-0.4,0.6-0.9,0.6-1.4
		c0-0.3-0.1-0.6-0.2-0.9l1.1-1.1c2.1,1.5,4.7,2.4,7.4,2.4c7,0,12.7-5.7,12.7-12.7C35.1,6.6,29.4,0.9,22.4,0.9z M12.5,26.3l-7.2,7.2
		c-0.1,0.1-0.3,0.2-0.5,0.2c-0.2,0-0.3-0.1-0.5-0.2l-1.9-1.9c-0.3-0.3-0.3-0.7,0-0.9l7.2-7.2c0.1-0.1,0.3-0.2,0.5-0.2
		c0.2,0,0.3,0.1,0.5,0.2l1.9,1.9c0.1,0.1,0.2,0.3,0.2,0.5S12.6,26.2,12.5,26.3z M13,24L12,23l1-1c0.3,0.3,0.6,0.6,0.9,0.9L13,24z" />
        <path class="st1" d="M30.3,18.6c0.3,0.2,0.7,0.1,0.9-0.3c0.8-1.5,1.2-3.1,1.2-4.8c0-5.5-4.5-10-10-10c-5.5,0-10,4.5-10,10
		c0,5.5,4.5,10,10,10c1.7,0,3.3-0.4,4.8-1.2c0.3-0.2,0.4-0.6,0.3-0.9c-0.2-0.3-0.6-0.4-0.9-0.3c-1.3,0.7-2.7,1-4.1,1
		c-4.8,0-8.7-3.9-8.7-8.7s3.9-8.7,8.7-8.7c4.8,0,8.7,3.9,8.7,8.7c0,1.4-0.4,2.9-1,4.1C29.9,18,30,18.5,30.3,18.6z" />
        <path class="st1" d="M13.9,5.7c0.2,0,0.3-0.1,0.4-0.2c0.3-0.2,0.3-0.7,0-0.9c-0.2-0.3-0.7-0.3-0.9,0l0,0c-0.3,0.2-0.3,0.7,0,0.9
		C13.5,5.7,13.7,5.7,13.9,5.7z" />
        <path class="st1" d="M29,20.9c0.2,0,0.3-0.1,0.4-0.2c0.3-0.2,0.3-0.7,0.1-0.9c-0.2-0.3-0.7-0.3-0.9-0.1l0,0
		c-0.3,0.2-0.3,0.7-0.1,0.9C28.6,20.8,28.8,20.9,29,20.9z" />
        <path class="st1" d="M29.4,14c0.2-0.2,0.2-0.5,0-0.8c-1.5-2.1-4.1-3.3-7-3.3s-5.5,1.3-7,3.3c-0.2,0.2-0.2,0.5,0,0.8
		c1.5,2.1,4.1,3.3,7,3.3S28,16,29.4,14z M24.8,13.6c0,1.3-1.1,2.4-2.4,2.4S20,14.9,20,13.6s1.1-2.4,2.4-2.4S24.8,12.3,24.8,13.6z
		 M16.8,13.6c0.6-0.7,1.4-1.3,2.3-1.7c-0.3,0.5-0.4,1.1-0.4,1.7s0.1,1.2,0.4,1.7C18.2,14.9,17.4,14.3,16.8,13.6z M25.7,15.3
		c0.3-0.5,0.4-1.1,0.4-1.7c0-0.6-0.1-1.2-0.4-1.7c0.9,0.4,1.7,1,2.3,1.7C27.4,14.3,26.6,14.9,25.7,15.3z" />
        <path class="st1" d="M22.4,14.3L22.4,14.3c0.4,0,0.7-0.3,0.7-0.7c0-0.4-0.3-0.7-0.7-0.7c-0.4,0-0.7,0.3-0.7,0.7
		C21.7,14,22,14.3,22.4,14.3z" />
</g>
    <g class="st0" id="Layer_2">
	
		<image style="display:inline;overflow:visible;enable-background:new    ;" height="150"
            id="fileimport_120157_1_" transform="matrix(0.2403 0 0 0.2403 4.6874 0)" width="120"
            xlink:href="4405A72A426D7AA7.png">
	</image>
</g>
    <g id="Layer_3">
	<path class="st2" d="M29,5c-1.2-1.2-2.5-2.6-3.6-3.9h-15c-2.6,0-4.8,2.2-4.8,4.8V30c0,2.6,2.2,4.8,4.8,4.8h17.1
		c2.6,0,4.8-2.2,4.8-4.8V8.2C31.2,7.2,30.1,6.1,29,5z" />
        <line class="st2" x1="14.3" x2="20" y1="12.6" y2="18.3" />
        <line class="st2" x1="14.3" x2="20" y1="22.7" y2="16.9" />
        <path class="st2" d="M24.2,8.3c2.6,0,5.1,0,7.7,0" />
        <path class="st2" d="M25.2,1.4c0,2.4,0,4.8,0,7.2" />
        <line class="st3" x1="5.6" x2="5.6" y1="12.8" y2="22.6" />
        <line class="st2" x1="19.1" x2="5.6" y1="18" y2="18" />
</g>
</svg>
